packages/kaspersky-hexa-ui-icons/src/iconsSVGs/24/MoreActive.svg

<svg xmlns="http://www.w3.org/2000/svg" width="24" height="24" fill="none" viewBox="0 0 24 24"><path fill="#00a78d" fill-rule="evenodd" d="M12.5 21.8701c5.5228 0 10-4.4771 10-10s-4.4772-10-10-10-10 4.4772-10 10 4.4772 10 10 10m-3-10c0 .5523-.4477 1-1 1s-1-.4477-1-1 .4477-1 1-1 1 .4477 1 1m3 1c.5523 0 1-.4477 1-1s-.4477-1-1-1-1 .4477-1 1 .4477 1 1 1m5-1c0 .5523-.4477 1-1 1s-1-.4477-1-1 .4477-1 1-1 1 .4477 1 1" clip-rule="evenodd"/></svg>

<svg width="24" height="24" viewBox="0 0 24 24" fill="none" xmlns="http://www.w3.org/2000/svg">
<path fill-rule="evenodd" clip-rule="evenodd" d="M12.5 21.8701C18.0228 21.8701 22.5 17.393 22.5 11.8701C22.5 6.34727 18.0228 1.87012 12.5 1.87012C6.97715 1.87012 2.5 6.34727 2.5 11.8701C2.5 17.393 6.97715 21.8701 12.5 21.8701ZM9.5 11.8701C9.5 12.4224 9.05229 12.8701 8.5 12.8701C7.94772 12.8701 7.5 12.4224 7.5 11.8701C7.5 11.3178 7.94772 10.8701 8.5 10.8701C9.05229 10.8701 9.5 11.3178 9.5 11.8701ZM12.5 12.8701C13.0523 12.8701 13.5 12.4224 13.5 11.8701C13.5 11.3178 13.0523 10.8701 12.5 10.8701C11.9477 10.8701 11.5 11.3178 11.5 11.8701C11.5 12.4224 11.9477 12.8701 12.5 12.8701ZM17.5 11.8701C17.5 12.4224 17.0523 12.8701 16.5 12.8701C15.9477 12.8701 15.5 12.4224 15.5 11.8701C15.5 11.3178 15.9477 10.8701 16.5 10.8701C17.0523 10.8701 17.5 11.3178 17.5 11.8701Z" fill="#00A78D"/>
</svg>
